X:559
T: Mdchen und Jude (257), S. 550
N: T0447
O: Luxemburg
S: Singendes Volk, Esch-Alzette, 1937 posth.]
N: Rodingen, mitgeteilt: hhh Heinrich Godefroid (Lehrer)
R: Scherz-, Spiel-, Spottlied]
M: 2/4
L: 1/8
K: G
D | GGGA | GEDD | EEFF | G2z2 |
d3c | BBBB | Bdd
d | dccc | edd
B | BBBB | Bdd
d | dccc | B2z

@@@ Tune index: 8613
